X: 936
T: Durang's Hornpipe   #2
R: hornpipe
%S: s:3 b:14(6+4+4)
B: Francis O'Neill: "The Dance Music of Ireland" (1907) #936
Z: Frank Nordberg - http://www.musicaviva.com
F: http://www.musicaviva.com/abc/tunes/ireland/oneill-1001/0936/oneill-1001-0936-1.abc
M: C|
L: 1/8
K: D
A2 "^A"\
|: DAFA DAFA | BcdB BAFA |1,3 DAFA DAFA | A,ECE A,ECE :|2,4 fgaf bgec | d2d2d2 :|
"^B"\
|: A2 | defe dcBA | Bcdc BAGF | E2(gf) edcB | Acdc dBAG ||
y4    | AGAB cBcd | edef gfge | fgaf bgec | d2d2d2 :|
